public/avatar/shoe/18.svg

<svg xmlns:xlink="http://www.w3.org/1999/xlink" height="38.3" width="36.05" xmlns="http://www.w3.org/2000/svg"><use height="16.4" transform="translate(9 12.45)" width="23.4" xlink:href="#a"/><defs><g id="a"><path d="M-3.5-1.25q2.25-.85 4.85-.55 1.9.15 3.55 1.05l-1.25.4-1.75.5-1.8.1-1.35-.1-.5-.5-1.75-.9M6 .3q2.4 1.55 1.9 4.95L6.45 6.7l-.95.6-1.9.85q-.65-.55-.7-1.45-.05-1.05.15-2 .1-.95.5-1.8.4-.9 1.05-1.55L6 .3m-20.15 8.45q-.4-1.95.35-4 .7-2.05 5.25-2.9l.2.05q2.25.8 3.4 3 1.35 2.55.45 5.25l-3.75.45q-3.15-.05-5.9-1.75v-.1" fill="#900" fill-rule="evenodd" transform="translate(14.8 2.4)"/><path d="M-1.25.15.1.25l1.8-.1 1.75-.5 1.25-.4L6 .3 4.6 1.35Q3.95 2 3.55 2.9q-.4.85-.5 1.8-.2.95-.15 2 .05.9.7 1.45l-3.85 1.2-.6.15-3.65.65q.9-2.7-.45-5.25-1.15-2.2-3.4-3l1.6.1 1.7.2q.95.15 1.75.7l1.55 1.2 1.1.15.4-.15q.5-.4.5-1.2-.05-1-.6-1.8l-.9-.95" fill="#fff" fill-rule="evenodd" transform="translate(14.8 2.4)"/><path d="M7.9 5.25q.35 2.85.15 3.15l-.1.2-1.75 1.45-2.75 1.3L-.2 12.5l-.55.15-3.75.65q-5.05.65-8.75-.7l-.55-.3q-.3-.3-.35-3.45 2.75 1.7 5.9 1.75l3.75-.45 3.65-.65.6-.15 3.85-1.2 1.9-.85.95-.6L7.9 5.25m-22 3.7-.05-.1.05.1m17.35.55q-.05.9.2 1.85-.25-.95-.2-1.85m-3.7 1 .25 2-.25-2m-4.05.95v1.85-1.85m10.7-3.4v2-2" fill="#ccc" fill-rule="evenodd" transform="translate(14.8 2.4)"/><path d="m-3.5-1.25 1.75.9.5.5.9.95q.55.8.6 1.8 0 .8-.5 1.2l-.4.15-1.1-.15-1.55-1.2q-.8-.55-1.75-.7l-1.7-.2-1.6-.1-.2-.05-.05-.05-.05-.35.2-.6 1.1-1.5q.85-.6 1.8-.7l2.05.1" fill="red" fill-rule="evenodd" transform="translate(14.8 2.4)"/><path d="M-14.15 8.85h-.05l.05-.1v.1" fill="#8f8e01" fill-rule="evenodd" transform="translate(14.8 2.4)"/><path d="M4.9-.75q-1.65-.9-3.55-1.05-2.6-.3-4.85.55l-2.05-.1q-.95.1-1.8.7l-1.1 1.5M4.9-.75 6 .3q2.4 1.55 1.9 4.95.35 2.85.15 3.15l-.1.2-1.75 1.45-2.75 1.3L-.2 12.5l-.55.15-3.75.65q-5.05.65-8.75-.7l-.55-.3q-.3-.3-.35-3.45h-.05l.05-.1q-.4-1.95.35-4 .7-2.05 5.25-2.9m-5.6 7 .05.1m-.05-.1v-.1m9.65 4.55v-1.85m4.3 1.05-.25-2m3.9.85q-.25-.95-.2-1.85m2.95.55v-2" fill="none" stroke="#333" stroke-linecap="round" stroke-linejoin="round" transform="translate(14.8 2.4)"/></g></defs></svg>

<?xml version="1.0" encoding="UTF-8" standalone="no"?>
<svg xmlns:xlink="http://www.w3.org/1999/xlink" height="38.3px" width="36.05px" xmlns="http://www.w3.org/2000/svg">
  <g transform="matrix(1.0, 0.0, 0.0, 1.0, 23.8, 14.85)">
    <use height="16.4" transform="matrix(1.0, 0.0, 0.0, 1.0, -14.8, -2.4)" width="23.4" xlink:href="#shape0"/>
  </g>
  <defs>
    <g id="shape0" transform="matrix(1.0, 0.0, 0.0, 1.0, 14.8, 2.4)">
      <path d="M-3.5 -1.25 Q-1.25 -2.1 1.35 -1.8 3.25 -1.65 4.9 -0.75 L3.65 -0.35 1.9 0.15 0.1 0.25 -1.25 0.15 -1.75 -0.35 -3.5 -1.25 M6.0 0.3 Q8.4 1.85 7.9 5.25 L6.45 6.7 5.5 7.3 3.6 8.15 Q2.95 7.6 2.9 6.7 2.85 5.65 3.05 4.7 3.15 3.75 3.55 2.9 3.95 2.0 4.6 1.35 L6.0 0.3 M-14.15 8.75 Q-14.55 6.8 -13.8 4.75 -13.1 2.7 -8.55 1.85 L-8.35 1.9 Q-6.1 2.7 -4.95 4.9 -3.6 7.45 -4.5 10.15 L-8.25 10.6 Q-11.4 10.55 -14.15 8.85 L-14.15 8.75" fill="#990000" fill-rule="evenodd" stroke="none"/>
      <path d="M-1.25 0.15 L0.1 0.25 1.9 0.15 3.65 -0.35 4.9 -0.75 6.0 0.3 4.6 1.35 Q3.95 2.0 3.55 2.9 3.15 3.75 3.05 4.7 2.85 5.65 2.9 6.7 2.95 7.6 3.6 8.15 L-0.25 9.35 -0.85 9.5 -4.5 10.15 Q-3.6 7.45 -4.95 4.9 -6.1 2.7 -8.35 1.9 L-6.75 2.0 -5.05 2.2 Q-4.1 2.35 -3.3 2.9 L-1.75 4.1 -0.65 4.25 -0.25 4.1 Q0.25 3.7 0.25 2.9 0.2 1.9 -0.35 1.1 L-1.25 0.15" fill="#ffffff" fill-rule="evenodd" stroke="none"/>
      <path d="M7.9 5.25 Q8.25 8.1 8.05 8.4 L7.95 8.6 6.2 10.05 3.45 11.35 -0.2 12.5 -0.75 12.65 -4.5 13.3 Q-9.55 13.95 -13.25 12.6 L-13.8 12.3 Q-14.1 12.0 -14.15 8.85 -11.4 10.55 -8.25 10.6 L-4.5 10.15 -0.85 9.5 -0.25 9.35 3.6 8.15 5.5 7.3 6.45 6.7 7.9 5.25 M-14.1 8.95 L-14.15 8.85 -14.1 8.95 M3.25 9.5 Q3.2 10.4 3.45 11.35 3.2 10.4 3.25 9.5 M-0.45 10.5 L-0.2 12.5 -0.45 10.5 M-4.5 11.45 L-4.5 13.3 -4.5 11.45 M6.2 8.05 L6.2 10.05 6.2 8.05" fill="#cccccc" fill-rule="evenodd" stroke="none"/>
      <path d="M-3.5 -1.25 L-1.75 -0.35 -1.25 0.15 -0.35 1.1 Q0.2 1.9 0.25 2.9 0.25 3.7 -0.25 4.1 L-0.65 4.25 -1.75 4.1 -3.3 2.9 Q-4.1 2.35 -5.05 2.2 L-6.75 2.0 -8.35 1.9 -8.55 1.85 -8.6 1.8 -8.65 1.45 -8.45 0.85 -7.35 -0.65 Q-6.5 -1.25 -5.55 -1.35 L-3.5 -1.25" fill="#ff0000" fill-rule="evenodd" stroke="none"/>
      <path d="M-14.15 8.85 L-14.2 8.85 -14.15 8.75 -14.15 8.85" fill="#8f8e01" fill-rule="evenodd" stroke="none"/>
      <path d="M4.9 -0.75 Q3.25 -1.65 1.35 -1.8 -1.25 -2.1 -3.5 -1.25 L-5.55 -1.35 Q-6.5 -1.25 -7.35 -0.65 L-8.45 0.85 M4.9 -0.75 L6.0 0.3 Q8.4 1.85 7.9 5.25 8.25 8.1 8.05 8.4 L7.95 8.6 6.2 10.05 3.45 11.35 -0.2 12.5 -0.75 12.65 -4.5 13.3 Q-9.55 13.95 -13.25 12.6 L-13.8 12.3 Q-14.1 12.0 -14.15 8.85 L-14.2 8.85 -14.15 8.75 Q-14.55 6.8 -13.8 4.75 -13.1 2.7 -8.55 1.85 M-14.15 8.85 L-14.1 8.95 M-14.15 8.85 L-14.15 8.75 M-4.5 13.3 L-4.5 11.45 M-0.2 12.5 L-0.45 10.5 M3.45 11.35 Q3.2 10.4 3.25 9.5 M6.2 10.05 L6.2 8.05" fill="none" stroke="#333333" stroke-linecap="round" stroke-linejoin="round" stroke-width="1.0"/>
    </g>
  </defs>
</svg>
